X:65
T:John with the Light Brown Hair
T:Downey's
R:polka
H:Title from the march version in Roche's collection
H:Cf. #122
D:Michael Tubridy: The Eagle's Whistle
Z:id:hn-polka-65
M:2/4
L:1/8
K:Ador
A>B cd|ea ge|d>e dB|AB G2|A>B cd|ea ge|dB gB|1 BA AG:|2 BA A2||
|:ea ag/a/|ba gd|ea ag/a/|ba g2|ea ag/a/|ba ge|dB gB|1 BA A2:|2 BA AG||
<end>
<start>
